static/logos/docusign-wordmark-color.svg

<svg width="100" height="23" viewBox="0 0 100 23" fill="none" xmlns="http://www.w3.org/2000/svg">
<g clip-path="url(#clip0_1_2973)">
<path d="M6.91519 15.178C10.2866 15.178 11.6017 13.1192 11.6017 9.5968C11.6017 6.07519 10.0638 3.6197 7.01398 3.6197H3.5959V15.178H6.91519ZM0 0.544614H7.4605C12.196 0.544614 15.2458 4.36417 15.2458 9.5968C15.2458 12.4735 14.2785 15.0041 12.4189 16.5665C11.1046 17.6571 9.3936 18.2775 7.16256 18.2775H0V0.544614ZM25.5159 11.929C25.5159 9.44822 24.351 7.7617 22.293 7.7617C20.2097 7.7617 19.0685 9.44822 19.0685 11.929C19.0685 14.409 20.2097 16.0702 22.293 16.0702C24.351 16.0702 25.5159 14.409 25.5159 11.929ZM15.6473 11.929C15.6473 8.13394 18.3502 5.20743 22.293 5.20743C26.2351 5.20743 28.9379 8.13394 28.9379 11.929C28.9379 15.7225 26.2351 18.6498 22.293 18.6498C18.3494 18.6498 15.6465 15.7233 15.6465 11.929H15.6473ZM29.4951 11.929C29.4951 8.13394 31.9751 5.20743 35.8428 5.20743C39.1416 5.20743 41.1742 7.1176 41.6208 9.87025H38.3228C38.0999 8.75433 37.2322 7.91028 35.9922 7.91028C33.9587 7.91028 32.9179 9.47351 32.9179 11.929C32.9179 14.3347 33.8844 15.9469 35.9424 15.9469C37.3065 15.9469 38.2738 15.2277 38.4967 13.7894H41.7448C41.522 16.4922 39.4134 18.6498 36.0167 18.6498C32.0004 18.6498 29.4951 15.7233 29.4951 11.929V11.929ZM50.5252 18.2783V16.7902H50.4509C49.5831 17.9559 48.5913 18.6253 46.806 18.6253C43.979 18.6253 42.3921 16.8155 42.3921 14.0367V5.55437H45.7391V13.4661C45.7391 14.9543 46.4092 15.7731 47.8468 15.7731C49.4337 15.7731 50.4011 14.5829 50.4011 12.8963V5.55437H53.7733V18.2783H50.5252ZM70.203 18.2783H73.5745V5.55437H70.203V18.2783ZM70.203 3.77618H73.5745V0.622854H70.203V3.77618ZM83.8754 11.3576C83.8754 9.49801 82.8835 7.91107 80.8501 7.91107C79.139 7.91107 77.9986 9.24985 77.9986 11.3829C77.9986 13.5404 79.139 14.8057 80.8753 14.8057C83.0076 14.8057 83.8754 13.2433 83.8754 11.3584V11.3576ZM74.9733 18.6498H78.3195C78.5929 19.4432 79.3113 20.0636 80.8738 20.0636C82.7832 20.0636 83.7007 19.1461 83.7007 17.4098V16.0204H83.6264C82.8819 16.8637 81.9154 17.5086 80.3032 17.5086C77.477 17.5086 74.6999 15.2767 74.6999 11.4327C74.6999 7.63763 76.9807 5.20743 80.2044 5.20743C81.7913 5.20743 82.9562 5.82703 83.7252 6.89395H83.775V5.55437H87.0232V17.3102C87.0232 19.0963 86.4525 20.311 85.5105 21.1795C84.4436 22.1714 82.8076 22.6179 80.9236 22.6179C77.4517 22.6179 75.3195 21.1298 74.9725 18.6498H74.9733ZM91.7682 7.29068H91.8424C92.7102 5.92661 93.8759 5.20743 95.6114 5.20743C98.24 5.20743 100 7.1911 100 9.96903V18.2775H96.6278V10.4653C96.6278 9.10128 95.8343 8.13394 94.4212 8.13394C92.9331 8.13394 91.8424 9.32414 91.8424 11.0604V18.2775H88.4702V5.55437H91.7682V7.29068ZM62.5181 7.58784C59.8895 7.01881 58.6495 6.59679 58.6495 5.15764C58.6495 3.89315 59.914 3.07439 61.8487 3.07439C63.6134 3.07439 64.9625 3.90263 65.2391 5.55437H68.6975C68.3458 2.111 65.7907 0.222168 61.8732 0.222168C57.9311 0.222168 55.0789 2.03276 55.0789 5.52987C55.0789 9.22535 57.9801 10.0686 61.154 10.7878C63.8569 11.4082 65.5434 11.7551 65.5434 13.4906C65.5434 15.1282 63.9311 15.7731 62.0968 15.7731C59.5679 15.7731 58.3524 14.9298 58.1042 12.7968H54.5834C54.7075 16.542 57.4348 18.6743 62.2454 18.6743C66.2373 18.6743 69.1385 16.6661 69.1385 13.0694C69.1385 9.24985 66.163 8.3821 62.5181 7.58784" fill="black"/>
</g>
<defs>
<clipPath id="clip0_1_2973">
<rect width="100" height="22.84" fill="white"/>
</clipPath>
</defs>
</svg>

<svg xmlns="http://www.w3.org/2000/svg" width="278.261" height="64" fill="none" viewBox="0 0 100 23"><g clip-path="url(#a)"><path fill="#000" d="M6.915 15.178c3.372 0 4.687-2.059 4.687-5.581 0-3.522-1.538-5.977-4.588-5.977H3.596v11.558h3.32ZM0 .545h7.46c4.736 0 7.786 3.82 7.786 9.052 0 2.877-.968 5.407-2.827 6.97-1.314 1.09-3.025 1.71-5.256 1.71H0V.546Zm25.516 11.384c0-2.48-1.165-4.167-3.223-4.167-2.083 0-3.224 1.686-3.224 4.167 0 2.48 1.14 4.141 3.224 4.141 2.058 0 3.223-1.661 3.223-4.141Zm-9.869 0c0-3.795 2.703-6.722 6.646-6.722 3.942 0 6.645 2.927 6.645 6.722 0 3.793-2.703 6.72-6.645 6.72-3.944 0-6.646-2.926-6.646-6.72Zm13.848 0c0-3.795 2.48-6.722 6.348-6.722 3.299 0 5.331 1.91 5.778 4.663h-3.298c-.223-1.116-1.09-1.96-2.33-1.96-2.034 0-3.075 1.564-3.075 4.019 0 2.406.966 4.018 3.024 4.018 1.364 0 2.332-.72 2.555-2.158h3.248c-.223 2.703-2.332 4.86-5.728 4.86-4.017 0-6.522-2.926-6.522-6.72Zm21.03 6.35V16.79h-.074c-.868 1.166-1.86 1.835-3.645 1.835-2.827 0-4.414-1.81-4.414-4.588V5.554h3.347v7.912c0 1.488.67 2.307 2.108 2.307 1.587 0 2.554-1.19 2.554-2.877V5.554h3.372v12.724h-3.248Zm19.678 0h3.371V5.553h-3.371v12.724Zm0-14.503h3.371V.623h-3.371v3.153Zm13.672 7.582c0-1.86-.992-3.447-3.025-3.447C79.14 7.911 78 9.25 78 11.383c0 2.157 1.14 3.423 2.876 3.423 2.133 0 3-1.563 3-3.448Zm-8.902 7.292h3.347c.273.793.991 1.414 2.554 1.414 1.91 0 2.827-.918 2.827-2.654v-1.39h-.075c-.744.844-1.71 1.489-3.323 1.489-2.826 0-5.603-2.232-5.603-6.076 0-3.795 2.28-6.226 5.504-6.226 1.587 0 2.752.62 3.521 1.687h.05v-1.34h3.248V17.31c0 1.786-.57 3.001-1.513 3.87-1.066.991-2.702 1.438-4.586 1.438-3.472 0-5.605-1.488-5.952-3.968h.001ZM91.768 7.29h.074c.868-1.363 2.034-2.083 3.77-2.083C98.24 5.207 100 7.191 100 9.97v8.309h-3.372v-7.813c0-1.364-.794-2.331-2.207-2.331-1.488 0-2.579 1.19-2.579 2.926v7.217H88.47V5.554h3.298v1.737Zm-29.25.298c-2.629-.57-3.868-.991-3.868-2.43 0-1.265 1.264-2.084 3.199-2.084 1.764 0 3.114.829 3.39 2.48h3.459C68.346 2.111 65.79.222 61.873.222c-3.942 0-6.794 1.81-6.794 5.308 0 3.695 2.901 4.539 6.075 5.258 2.703.62 4.39.967 4.39 2.703 0 1.637-1.613 2.282-3.447 2.282-2.53 0-3.745-.843-3.993-2.976h-3.52c.123 3.745 2.85 5.877 7.661 5.877 3.992 0 6.893-2.008 6.893-5.605 0-3.82-2.975-4.687-6.62-5.481"/></g><defs><clipPath id="a"><path fill="#fff" d="M0 0h100v22.84H0z"/></clipPath></defs></svg>
